X:45
T:Pride of Scotland. JJo8.045, The
%%VWML:JohnsonVol8-2184-p23-0
F:http://www.vwml.org/record/JohnsonVol8/2184/p23
Z:Transcribed by Simon Furey and Lewis Jones
Z:vmp.Simon Wilson 2013 www.village-music-project.org.uk
Z:Dance added by John Chambers 2017
M:C|
L:1/8
%Q:1/2=90
K:G
d |\
(gf)(gd) e/e/e .e.g | (dB)(AG) A/A/A .A.B |\
(GE)(DE) (GB)(dg) | (ed)(e>g)e3 :|\
|: d |\
g2(ga) (ge)(dg) | e/e/e edB2Bd |
e2cef2df | g2eg (ae)(fd) |\
g2(ga) (ge)(dg) | (dB)(AG) A/A/A .A.B |\
(GE)(DE) G2.G>.B | (AG)(G>B) G3 :|
W: Turn Right hands round and cast off one Cu. .|
W:Lead thro' the 3d Cu. and cast up into the 2d Cu. Place
W::| the Man whole figure at Bottom the Wo. hands 3
W:round at top at the same time :||: the Man hands 3
W:round at Bottom the Wo. whole figure at top at the same
W:time :||: hands six round .:||: Right hands & left .:||
W:
T:Parker's Whim. JJo8.046
B:J.Johnson Choice Collection Vol 8 1758
Z:vmp.Simon Wilson 2013 www.village-music-project.org.uk
Z:Dance added by John Chambers 2017
M:C|
L:1/8
%Q:1/2=80
K:F
|: c |\
(A/B/c) (c/d/e)f2(fc) | (d/e/f) (cA) BG-Ga |\
(gf)(ed) ec-cd | (e/f/g) (G=B)c3 :|
|: c |\
(A/B/c) (_ec) dB-Bd | (gf)(ed) ec-ca |\
(bg)(ec)B2(AG) | (A/B/c) (BG)F3 :|
W: Cast off two Cu. .| Lead
W:up to the top and cast off
W::| Right hands across once
W:round at Bottom :||. Right
W:hands and Left at top :||:
W:
